X:1
T:PAM-polskan
C:Björn Lindström
R:Polska
O:Gopa,Bjursås, Dalarna
N:Finnskogarn ovan ommodifierad till "enkel" polska.
M:3/4
L:1/8
K:Am
|:c2 e2 e2 | cA A2 cA | G2 B2 GB | ce cA- A2 | c2 e2 e2 | cA A2 cA | G2 B2 GB | cB A4 :: ce cc ec | %9
 BA A2 cA | G2 BE GB | ce c A3 | ce cc ec | BA A2 cA | G2 BE GB |1 cA A4 :|2 cA A2 ^c2 |: %17
 A2 E2 ^c2 | (3A^cA E2 d2 | B2 E2 d2 | (3BdB E2 ^c2 | A2 E2 ^c2 | (3A^cA E2 d2 |B^G E2 GB |1 %24
 A4 ^c2 :|2 A6 |]

